svg/fluentui-system-icons/ic_fluent_send_clock_24_regular.svg

<svg width="24" height="24" viewBox="0 0 24 24" fill="none" xmlns="http://www.w3.org/2000/svg">
<path d="M5.69362 11.9997L2.29933 3.2715C2.0631 2.66403 2.65544 2.08309 3.2414 2.28959L3.33375 2.32885L21.3337 11.3288C21.7769 11.5504 21.8648 12.1013 21.5975 12.4535C20.4793 11.5445 19.0533 10.9997 17.5 10.9997C17.4418 10.9997 17.3837 11.0004 17.3259 11.002L4.4021 4.54007L7.01109 11.2491L13.6387 11.2497C13.9856 11.2497 14.2776 11.4853 14.3632 11.8053C13.8908 12.0661 13.4543 12.3839 13.063 12.7496L7.01109 12.7491L4.4021 19.4593L11.1549 16.0829C11.0535 16.539 11 17.0131 11 17.4997C11 17.6115 11.0028 17.7227 11.0084 17.8332L3.33375 21.6705C2.75077 21.962 2.11746 21.426 2.2688 20.8234L2.29933 20.7278L5.69362 11.9997Z" fill="#212121"/>
<path d="M23 17.4997C23 14.4621 20.5376 11.9997 17.5 11.9997C14.4624 11.9997 12 14.4621 12 17.4997C12 20.5372 14.4624 22.9997 17.5 22.9997C20.5376 22.9997 23 20.5372 23 17.4997ZM17.5 17.4997H19.5C19.7761 17.4997 20 17.7236 20 17.9997C20 18.2759 19.7761 18.4997 19.5 18.4997H17C16.7239 18.4997 16.5 18.2759 16.5 17.9997L16.5 17.9982L16.5 14.9996C16.5 14.7235 16.7239 14.4996 17 14.4996C17.2761 14.4996 17.5 14.7235 17.5 14.9996L17.5 17.4997Z" fill="#212121"/>
</svg>

<svg xmlns="http://www.w3.org/2000/svg" width="24" height="24"><path d="M5.694 12 2.299 3.27c-.236-.607.356-1.188.942-.981l.093.039 18 9a.752.752 0 0 1 .264 1.124 6.473 6.473 0 0 0-4.272-1.451L4.402 4.54l2.61 6.71h6.627a.75.75 0 0 1 .724.555 6.52 6.52 0 0 0-1.3.945H7.011l-2.609 6.71 6.753-3.377a6.522 6.522 0 0 0-.147 1.75l-7.674 3.838c-.583.291-1.217-.245-1.065-.848l.03-.095L5.694 12Z"/><path d="M23 17.5a5.5 5.5 0 1 0-11 0 5.5 5.5 0 0 0 11 0Zm-5.5 0h2a.5.5 0 0 1 0 1H17a.5.5 0 0 1-.5-.5v-3a.5.5 0 0 1 1 0v2.5Z"/></svg>
